X:2804
T:Celtic Society's Quickstep The
S:Irtrad-l, P. de Grae, 11/97
M:4/4
K:AMix
e2 | A2 AA c2 BA | c2 e2 e2 a2 | A2 AA c2 BA | dcBA GABG |\
A2 AA c2 BA | c2 e2 e2 g2 | B2 AB GABd | e2 A2 A2 :: e2 |\
a2 e2 c2 BA | c2 e2 e2 ^g2 | a2 e2 c2 BA | g2 B2 B2 g2 |1\
a2 e2 c2 BA | c2 e2 e2 g2 | B2 AB GABd | e2 A2 A2 :|2\
a2 ^gf g2 fe | f2 ed e2 dc | B2 AB GABd | e2 A2 A2 ||**


